X:36
T:Rocky Road To Dub-i-lin
N:slip  Jig    Allan's #36
N:trad/anon
B:Allan's Irish Fiddler (pub. Mozart Allen,  Glascow) date unknown
Z:FROM ALLAN'S TO NOTEWORTHY, FROM NOTEWORTHY TO ABC, MIDI AND .TXT BY VINCE
BRENNAN Dec. 2002 (HTTP://WWW.SOSYOURMOM.COM)
I:abc2nwc
M:9/8
L:1/8
K:G
efe d2B A3|E2A A2A Bcd|efe d2B A2c|B2G G2A Bcd:|
e2a a2f g2d|e2a a2A Bcd|e2a a2f g2e|d2B G2A Bcd|
e2a a2f g2d|e2a a2A Bcd|efg fga g2e|d2B G2A Bcd:|
e2e d2B A3|]
